X:3641
T:Cunnla
S:Digital Tradition, cunnldr
N:Tune is "The Friar's Britches"
D:from the singing of Joe Heaney
O:Irish
Z:dt:cunnldr
M:6/8
L:1/8
Q:3/8=100
W:O who is that out there knocking the ditches down
W:O who is that out there knocking the ditches down
W:O who is that out there knocking the ditches down
W:Nobody, only Cunnla
W:
W:  Chorus:
W:  Cunnla dear, don't come any nearer me
W:  Cunnla dear, don't come any nearer me
W:  Cunnla dear, don't come any nearer me
W:  Maybe I shouldn't, says Cunnla
W:
W:Who is that down there tapping the windowpane
W:Nobody, only Cunnla
W:
W:Who is that down there raking the fire for me
W:Nobody, only Cunnla
W:
W:Who is that down there tickling the toes off me
W:Nobody, only Cunnla
W:
W:Who is that down there pulling the blanket off
W:Nobody, only Cunnla
K:A
E/-D/|CA,A, B,-CD|EAA GED|EEE F-EE|DB,B, CA,A,|
CA,A, B,-CD|EAA GED|CCC E-B,C|A,3 A,2E|
A2B c-AA|BAA GED|E2E E2E|DB,B, CA,A,|
A2B c-AA|BAA GED|CCC EDB,|A,3 A,2||


